src/assets/icons/bell-slash.svg

<svg width="14" height="14" viewBox="0 0 14 14" fill="none" xmlns="http://www.w3.org/2000/svg">
<g id="bell-slash">
<g clip-path="url(#clip0_295_4707)">
<path id="Vector" fill-rule="evenodd" clip-rule="evenodd" d="M7 0.378418C5.81681 0.378418 4.81521 0.676759 4.02831 1.24169C3.62347 1.53233 3.30299 1.95492 3.0885 2.28587L2.10403 1.30141C1.88238 1.07976 1.52302 1.07976 1.30137 1.30141C1.07972 1.52306 1.07972 1.88242 1.30137 2.10407L2.81489 3.61759L10.3825 11.1852L11.896 12.6987C12.1176 12.9203 12.477 12.9203 12.6986 12.6987C12.9203 12.477 12.9203 12.1177 12.6986 11.896L12.154 11.3514H13.4324C13.7459 11.3514 14 11.0973 14 10.7838C14 10.4771 13.7567 10.2272 13.4525 10.2166L13.4508 10.2164C13.4481 10.216 13.4442 10.2155 13.4392 10.2146C13.4171 10.2107 13.3733 10.2007 13.3141 10.1763C13.1994 10.129 13.0097 10.0204 12.803 9.7648C12.3837 9.24629 11.8584 8.07347 11.8584 5.48653C11.8584 4.06543 11.4745 2.78155 10.6422 1.84582C9.80099 0.90001 8.56246 0.378418 7 0.378418ZM4.01442 2.9448C3.97762 3.00286 3.94389 3.05875 3.91354 3.11092L11.0189 10.2163H11.7285C11.1651 9.36536 10.7232 7.92598 10.7232 5.48653C10.7232 4.25897 10.392 3.27258 9.79401 2.60021C9.20495 1.93791 8.29808 1.51355 7 1.51355C6.00996 1.51355 5.2511 1.7612 4.6903 2.1638C4.44247 2.34172 4.20352 2.64652 4.01442 2.9448ZM3.27676 5.48653C3.27676 5.17307 3.02265 4.91896 2.70919 4.91896C2.39573 4.91896 2.14162 5.17307 2.14162 5.48653C2.14162 6.54881 2.05293 7.37604 1.91793 8.01844C1.65848 9.25294 1.23339 9.78475 0.953487 10.0125C0.811176 10.1283 0.691571 10.1781 0.620919 10.1997C0.584934 10.2108 0.56019 10.2149 0.550022 10.2163L0.54748 10.2166C0.243324 10.2272 0 10.4771 0 10.7838C0 11.0973 0.254109 11.3514 0.567568 11.3514H0.568673H4.2187C4.48095 12.6482 5.62475 13.6217 7 13.6217C8.02079 13.6217 8.91442 13.0848 9.41378 12.2787C9.57886 12.0122 9.49665 11.6624 9.23018 11.4973C8.96371 11.3322 8.61387 11.4144 8.4488 11.6809C8.14852 12.1657 7.61309 12.4865 7 12.4865C6.2564 12.4865 5.62654 12.0138 5.3936 11.3514H7.75676C8.07022 11.3514 8.32432 11.0973 8.32432 10.7838C8.32432 10.4704 8.07022 10.2163 7.75676 10.2163H4.72973H2.2715C2.57629 9.75555 2.8461 9.12117 3.02879 8.25191C3.18315 7.51743 3.27676 6.6099 3.27676 5.48653Z" fill="black"/>
</g>
</g>
<defs>
<clipPath id="clip0_295_4707">
<rect width="14" height="14" fill="white"/>
</clipPath>
</defs>
</svg>

<svg xmlns="http://www.w3.org/2000/svg" fill="none" viewBox="0 0 14 14"><g clip-path="url(#a)"><path fill="#000" fill-rule="evenodd" d="M7 .378c-1.183 0-2.185.299-2.972.864-.405.29-.725.713-.94 1.044L2.105 1.3a.568.568 0 1 0-.803.803l1.514 1.514 7.568 7.567 1.513 1.514a.568.568 0 0 0 .803-.803l-.545-.545h1.278a.568.568 0 0 0 .02-1.134h-.001l-.012-.002a.6.6 0 0 1-.125-.039c-.115-.047-.304-.156-.511-.411-.42-.519-.945-1.692-.945-4.278 0-1.422-.383-2.705-1.216-3.641C9.801.9 8.562.378 7 .378M4.014 2.945q-.054.087-.1.166l7.105 7.105h.71c-.564-.85-1.006-2.29-1.006-4.73 0-1.227-.331-2.213-.929-2.886C9.204 1.938 8.298 1.514 7 1.514c-.99 0-1.749.247-2.31.65-.248.178-.486.483-.676.78m-.737 2.542a.568.568 0 0 0-1.135 0c0 1.062-.09 1.889-.224 2.531-.26 1.235-.685 1.767-.965 1.994a1 1 0 0 1-.332.188 1 1 0 0 1-.071.016H.547a.568.568 0 0 0 .02 1.135H4.22A2.835 2.835 0 0 0 7 13.621c1.02 0 1.914-.536 2.414-1.342a.568.568 0 0 0-.965-.598c-.3.485-.836.806-1.449.806a1.7 1.7 0 0 1-1.606-1.136h2.363a.568.568 0 0 0 0-1.135H2.27c.305-.46.575-1.095.758-1.964.154-.735.248-1.642.248-2.765" clip-rule="evenodd"/></g><defs><clipPath id="a"><path fill="#fff" d="M0 0h14v14H0z"/></clipPath></defs></svg>
